dark/Papirus-Mer/MerPlaces/folder-blue-games.svg

<?xml version="1.0" encoding="UTF-8" standalone="no"?>
<svg
   xmlns:dc="http://purl.org/dc/elements/1.1/"
   xmlns:cc="http://creativecommons.org/ns#"
   xmlns:rdf="http://www.w3.org/1999/02/22-rdf-syntax-ns#"
   xmlns:svg="http://www.w3.org/2000/svg"
   xmlns="http://www.w3.org/2000/svg"
   xmlns:sodipodi="http://sodipodi.sourceforge.net/DTD/sodipodi-0.dtd"
   xmlns:inkscape="http://www.inkscape.org/namespaces/inkscape"
   width="32"
   height="32"
   version="1"
   id="svg16"
   sodipodi:docname="folder-blue-games.svg"
   inkscape:version="0.92.4 5da689c313, 2019-01-14">
  <metadata
     id="metadata22">
    <rdf:RDF>
      <cc:Work
         rdf:about="">
        <dc:format>image/svg+xml</dc:format>
        <dc:type
           rdf:resource="http://purl.org/dc/dcmitype/StillImage" />
        <dc:title></dc:title>
      </cc:Work>
    </rdf:RDF>
  </metadata>
  <defs
     id="defs20" />
  <sodipodi:namedview
     pagecolor="#ffffff"
     bordercolor="#666666"
     borderopacity="1"
     objecttolerance="10"
     gridtolerance="10"
     guidetolerance="10"
     inkscape:pageopacity="0"
     inkscape:pageshadow="2"
     inkscape:window-width="640"
     inkscape:window-height="480"
     id="namedview18"
     showgrid="false"
     inkscape:zoom="11.886358"
     inkscape:cx="12.658624"
     inkscape:cy="16"
     inkscape:window-x="0"
     inkscape:window-y="26"
     inkscape:window-maximized="0"
     inkscape:current-layer="svg16" />
  <rect
     style="opacity:0.2"
     width="25"
     height="16"
     x="3"
     y="12"
     rx="1.25"
     ry="1.25"
     id="rect2" />
  <path
     style="fill:#ff6600"
     d="M 3,21.75 C 3,22.442 3.5575,23 4.25,23 H 26.75 C 27.442,23 28,22.442 28,21.75 V 8.25 C 28,7.5575 27.442,7 26.75,7 H 14 V 6.25 C 14,5.5575 13.443,5 12.75,5 H 4.25 C 3.5575,5 3,5.5575 3,6.25"
     id="path4" />
  <rect
     style="opacity:0.2"
     width="25"
     height="16"
     x="3"
     y="10"
     rx="1.25"
     ry="1.25"
     id="rect6" />
  <rect
     style="fill:#e4e4e4"
     width="21"
     height="10"
     x="5"
     y="9"
     rx="1.25"
     ry="1.25"
     id="rect8" />
  <rect
     style="fill:#ff6600"
     width="25"
     height="16"
     x="3"
     y="11"
     rx="1.25"
     ry="1.25"
     id="rect10" />
  <path
     style="opacity:0.1;fill:#ffffff"
     d="M 4.25 5 C 3.5575 5 3 5.5575 3 6.25 L 3 7.25 C 3 6.5575 3.5575 6 4.25 6 L 12.75 6 C 13.443 6 14 6.5575 14 7.25 L 14 8 L 26.75 8 C 27.442 8 28 8.5575 28 9.25 L 28 8.25 C 28 7.5575 27.442 7 26.75 7 L 14 7 L 14 6.25 C 14 5.5575 13.443 5 12.75 5 L 4.25 5 z"
     id="path12" />
  <path
     style="fill:#000000"
     d="M 18.645 15 C 18.495 15.001 18.359 15.052 18.229 15.15 C 17.899 15.402 17.21 15.999 15.998 16 C 14.786 16.001 14.1 15.402 13.77 15.15 C 13.64 15.052 13.515 15.003 13.363 15.004 C 13.212 15.005 13.037 15.049 12.859 15.15 C 12.211 15.515 11.617 16.712 11.293 18.262 C 11.017 19.578 10.913 21.377 11.078 22.102 C 11.222 22.724 11.469 23 11.91 23 C 13.323 23 13.385 21.908 13.906 20.861 C 14.283 20.281 15.156 20.019 15.998 20.049 C 16.84 20.017 17.715 20.281 18.092 20.861 C 18.613 21.908 18.675 23 20.088 23 C 20.529 23 20.776 22.724 20.92 22.102 C 21.085 21.377 20.981 19.578 20.705 18.262 C 20.381 16.712 19.787 15.515 19.139 15.15 C 18.961 15.049 18.796 14.999 18.645 15 z M 13 16 L 14 16 L 14 17 L 15 17 L 15 18 L 14 18 L 14 19 L 13 19 L 13 18 L 12 18 L 12 17 L 13 17 L 13 16 z M 18.5 16 A 0.5 0.5 0 0 1 19 16.5 A 0.5 0.5 0 0 1 18.5 17 A 0.5 0.5 0 0 1 18 16.5 A 0.5 0.5 0 0 1 18.5 16 z M 17.5 17 A 0.5 0.5 0 0 1 18 17.5 A 0.5 0.5 0 0 1 17.5 18 A 0.5 0.5 0 0 1 17 17.5 A 0.5 0.5 0 0 1 17.5 17 z M 19.5 17 A 0.5 0.5 0 0 1 20 17.5 A 0.5 0.5 0 0 1 19.5 18 A 0.5 0.5 0 0 1 19 17.5 A 0.5 0.5 0 0 1 19.5 17 z M 18.5 18 A 0.5 0.5 0 0 1 19 18.5 A 0.5 0.5 0 0 1 18.5 19 A 0.5 0.5 0 0 1 18 18.5 A 0.5 0.5 0 0 1 18.5 18 z"
     id="path14" />
</svg>

<?xml version="1.0" encoding="utf-8"?>
<!-- Generator: Adobe Illustrator 24.0.2, SVG Export Plug-In . SVG Version: 6.00 Build 0)  -->
<svg version="1.1"
	 id="svg16" xmlns:cc="http://creativecommons.org/ns#" xmlns:dc="http://purl.org/dc/elements/1.1/" xmlns:inkscape="http://www.inkscape.org/namespaces/inkscape" xmlns:rdf="http://www.w3.org/1999/02/22-rdf-syntax-ns#" xmlns:sodipodi="http://sodipodi.sourceforge.net/DTD/sodipodi-0.dtd" xmlns:svg="http://www.w3.org/2000/svg"
	 xmlns="http://www.w3.org/2000/svg" xmlns:xlink="http://www.w3.org/1999/xlink" x="0px" y="0px" viewBox="0 0 32 32"
	 style="enable-background:new 0 0 32 32;" xml:space="preserve">
<style type="text/css">
	.st0{fill:#CCCCCC;}
	.st1{fill:#2E2E2E;}
	.st2{fill:#A3A3A3;}
	.st3{fill:#252525;}
	.st4{fill:#E4E4E4;}
	.st5{fill:#434343;}
	.st6{fill:#FF6600;}
</style>
<sodipodi:namedview  bordercolor="#666666" borderopacity="1" gridtolerance="10" guidetolerance="10" id="namedview18" inkscape:current-layer="svg16" inkscape:cx="12.658624" inkscape:cy="16" inkscape:pageopacity="0" inkscape:pageshadow="2" inkscape:window-height="480" inkscape:window-maximized="0" inkscape:window-width="640" inkscape:window-x="0" inkscape:window-y="26" inkscape:zoom="11.886358" objecttolerance="10" pagecolor="#ffffff" showgrid="false">
	</sodipodi:namedview>
<g>
	<path class="st0" d="M3,13.3L3,13.3v13.5C3,27.4,3.6,28,4.2,28h22.5c0.7,0,1.3-0.6,1.3-1.2v-2c0,0.7-0.6,1.2-1.3,1.2H4.2
		C3.6,26,3,25.4,3,24.8v-3l0,0V13.3"/>
	<path class="st1" d="M3,21.7C3,22.4,3.6,23,4.2,23h22.5c0.7,0,1.3-0.6,1.3-1.3V8.3C28,7.6,27.4,7,26.7,7H14V6.2
		C14,5.6,13.4,5,12.8,5H4.2C3.6,5,3,5.6,3,6.2V21.7"/>
	<path class="st2" d="M28,21.7c0,0.7-0.6,1.3-1.3,1.3H4.2C3.6,23,3,22.4,3,21.7v3C3,25.4,3.6,26,4.2,26h22.5c0.7,0,1.3-0.6,1.3-1.2
		V21.7"/>
	<path class="st3" d="M26.7,10H4.2C3.6,10,3,10.6,3,11.2v10.5C3,22.4,3.6,23,4.2,23h22.5c0.7,0,1.3-0.6,1.3-1.3l0,0V11.2
		C28,10.6,27.4,10,26.7,10"/>
	<path class="st4" d="M6.2,9h18.5c0.7,0,1.2,0.6,1.2,1.2v7.5c0,0.7-0.6,1.2-1.2,1.2H6.2C5.6,19,5,18.4,5,17.8v-7.5
		C5,9.6,5.6,9,6.2,9z"/>
	<path class="st1" d="M4.2,11h22.5c0.7,0,1.2,0.6,1.2,1.2v13.5c0,0.7-0.6,1.2-1.2,1.2H4.2C3.6,27,3,26.4,3,25.8V12.2
		C3,11.6,3.6,11,4.2,11z"/>
	<path class="st5" d="M12.8,5H4.2C3.6,5,3,5.6,3,6.2v1C3,6.6,3.6,6,4.2,6h8.5C13.4,6,14,6.6,14,7.2V8h12.8C27.4,8,28,8.6,28,9.2v-1
		C28,7.6,27.4,7,26.7,7H14V6.2C14,5.6,13.4,5,12.8,5"/>
	<path class="st6" d="M18.6,15c-0.1,0-0.3,0.1-0.4,0.1c-0.3,0.3-1,0.8-2.2,0.9s-1.9-0.6-2.2-0.9c-0.1-0.1-0.3-0.1-0.4-0.1
		c-0.2,0-0.3,0-0.5,0.1c-0.6,0.4-1.2,1.6-1.6,3.1c-0.3,1.3-0.4,3.1-0.2,3.8c0.1,0.6,0.4,0.9,0.8,0.9c1.4,0,1.5-1.1,2-2.1
		c0.4-0.6,1.2-0.8,2.1-0.8c0.8,0,1.7,0.2,2.1,0.8c0.5,1,0.6,2.1,2,2.1c0.4,0,0.7-0.3,0.8-0.9c0.2-0.7,0.1-2.5-0.2-3.8
		c-0.3-1.5-0.9-2.7-1.6-3.1C19,15,18.8,15,18.6,15z M13,16h1v1h1v1h-1v1h-1v-1h-1v-1h1V16z M18.5,16c0.3,0,0.5,0.2,0.5,0.5
		S18.8,17,18.5,17S18,16.8,18,16.5S18.2,16,18.5,16z M17.5,17c0.3,0,0.5,0.2,0.5,0.5S17.8,18,17.5,18S17,17.8,17,17.5
		S17.2,17,17.5,17z M19.5,17c0.3,0,0.5,0.2,0.5,0.5S19.8,18,19.5,18S19,17.8,19,17.5S19.2,17,19.5,17z M18.5,18
		c0.3,0,0.5,0.2,0.5,0.5S18.8,19,18.5,19S18,18.8,18,18.5S18.2,18,18.5,18z"/>
</g>
</svg>
